shapes/102.svg

<?xml version="1.0" encoding="UTF-8" standalone="no"?>
<svg
   ffdec:objectType="shape"
   height="199.99712"
   width="80.495689"
   viewBox="0 0 16.099138 39.999423"
   version="1.1"
   id="svg4"
   sodipodi:docname="102.svg"
   inkscape:version="1.3.2 (091e20e, 2023-11-25)"
   xmlns:inkscape="http://www.inkscape.org/namespaces/inkscape"
   xmlns:sodipodi="http://sodipodi.sourceforge.net/DTD/sodipodi-0.dtd"
   xmlns="http://www.w3.org/2000/svg"
   xmlns:svg="http://www.w3.org/2000/svg"
   xmlns:ffdec="https://www.free-decompiler.com/flash">
  <defs
     id="defs4" />
  <sodipodi:namedview
     id="namedview4"
     pagecolor="#ffffff"
     bordercolor="#000000"
     borderopacity="0.25">
    <inkscape:page
       x="0"
       y="0"
       width="16.099138"
       height="39.999424"
       id="page16"
       margin="0 0 0"
       bleed="0" />
  </sodipodi:namedview>
  <g
     transform="translate(0.99913723)"
     id="g4">
    <path
       d="m 15.1,0 v 17.55 l -1,2.65 1,2 V 40 H 3.1 V 22.2 L 4.25,20.2 3.1,17.55 V 0 h 12"
       fill="#000000"
       fill-opacity="0.2"
       fill-rule="evenodd"
       stroke="none"
       id="path1" />
    <path
       d="m 10,0 h 1 v 17.55 l -0.05,0.15 -0.95,2.5 1,2 V 40 H 10 V 22.2 L 8.35,20.2 9.9,17.7 10,17.55 V 0 M 0,40 H -1 V 22.2 l 1.15,-2 -1.1,-2.5 L -1,17.55 V 0 H 0 V 17.55 L 0.05,17.7 1.4,20.2 0,22.2 V 40 M 10.95,17.7 H 9.9 10.95 m -11.9,0 h 1 -1"
       fill="#653d01"
       fill-rule="evenodd"
       stroke="none"
       id="path2" />
    <path
       d="M 9.55,40 H 0.45 V 26 q 0,-2.25 1.35,-3.8 L 1.9,22.1 Q 3,20.9 4.4,20.6 L 4.45,20.55 4.7,20.5 6.15,20.75 H 6.2 q 1,0.4 1.85,1.35 l 0.1,0.1 Q 9.5,23.75 9.55,26 V 40 M 0.45,0 H 3.2 q -0.55,1.1 -0.55,3.85 0,6 0.85,9.6 0,1 -0.8,4.25 l -0.05,0.15 0.25,0.9 -1,-0.9 L 1.8,17.7 1.65,17.55 Q 0.45,16.05 0.45,14 V 0 m 3,0 h 6.1 V 14 Q 9.5,16.05 8.3,17.55 L 8.2,17.7 H 7.05 8.2 L 8.05,17.85 Q 7.2,18.8 6.2,19.2 H 6.15 L 4.7,19.5 4.45,19.4 4.4,19.35 3.25,18.95 3.15,18.3 3.35,17.7 Q 4.2,14.95 4.2,13.55 3.2,8.6 3.2,3.4 L 3.4,0.8 3.45,0 m 2.9,17.7 h -3 3 L 6.3,18 v 0.45 l 0.4,0.15 0.35,-0.9 0.5,-4.95 q 0,-6.2 -0.8,-8.35 L 6.55,4.5 Q 6.5,6.3 6.9,9.1 l -0.55,8.6 m -3.65,0 H 1.8 2.7 M 3,26.85 3.1,26.2 q -0.55,0.1 -0.55,1.1 0,8.1 0.9,12.3 L 3.75,37.5 3,26.85 m 4.15,2.95 q 0,-2.25 -0.75,-3.75 H 6.25 l -0.05,0.15 0.5,3.85 -0.6,4.8 0.4,0.3 Q 7.15,31.8 7.15,29.8"
       fill="#a36932"
       fill-rule="evenodd"
       stroke="none"
       id="path3" />
    <path
       id="path4"
       d="M 3.1988281,0.00273437 C 2.8329947,0.73648222 2.65,2.0187518 2.65,3.85 c 0,3.999996 0.2833339,7.200002 0.85,9.6 0,0.666666 -0.2666672,2.083336 -0.8,4.25 l -0.05,0.15 0.25,0.9 -1,-0.9 L 1.8,17.7 1.65,17.55 C 0.8500008,16.550001 0.45,15.366665 0.45,14 V 0 H 0 V 17.55 L 0.05,17.7 1.4,20.2 0,22.2 V 40 H 0.45 V 26 c 0,-1.499999 0.4500009,-2.766668 1.35,-3.8 L 1.9,22.1 C 2.6333326,21.300001 3.4666676,20.8 4.4,20.6 L 4.45,20.55 4.7,20.5 6.15,20.75 H 6.2 c 0.666666,0.266666 1.2833339,0.716667 1.85,1.35 l 0.1,0.1 c 0.8999991,1.033332 1.3666667,2.300001 1.4,3.8 V 40 H 10 V 22.2 L 8.35,20.2 9.9,17.7 10,17.55 V 0 H 9.55 V 14 C 9.5166667,15.366665 9.0999992,16.550001 8.3,17.55 L 8.2,17.7 8.05,17.85 C 7.4833339,18.483333 6.866666,18.933334 6.2,19.2 H 6.15 L 4.7,19.5 4.45,19.4 4.4,19.35 3.25,18.95 3.15,18.3 3.35,17.7 C 3.9166661,15.866669 4.2,14.483332 4.2,13.55 3.533334,10.250003 3.2,6.8666632 3.2,3.4 L 3.4,0.8 3.45,0.00273437 Z M 6.75,4.4 6.55,4.5 C 6.5166667,5.6999988 6.6333336,7.2333352 6.9,9.1 L 6.35,17.7 6.3,18 v 0.45 l 0.4,0.15 0.35,-0.9 0.5,-4.95 C 7.55,8.6166708 7.2833328,5.8333319 6.75,4.4 Z m -0.5,21.65 -0.05,0.15 0.5,3.85 -0.6,4.8 0.4,0.3 C 6.9333329,32.916669 7.15,31.133332 7.15,29.8 7.15,28.300002 6.8999995,27.049999 6.4,26.05 Z M 3.1,26.2 c -0.3666663,0.06667 -0.55,0.433334 -0.55,1.1 0,5.399995 0.3000006,9.500003 0.9,12.3 L 3.75,37.5 3,26.85 Z"
       style="fill:#815529;fill-opacity:1" />
  </g>
</svg>

<?xml version="1.0" encoding="UTF-8" standalone="no"?>
<svg xmlns:ffdec="https://www.free-decompiler.com/flash" xmlns:xlink="http://www.w3.org/1999/xlink" ffdec:objectType="shape" height="202.25px" width="80.5px" viewBox="0 0 16.1 40.45" xmlns="http://www.w3.org/2000/svg">
  <g transform="matrix(1.0, 0.0, 0.0, 1.0, 1.0, 0.45)">
    <path d="M15.1 0.0 L15.1 17.55 14.1 20.2 15.1 22.2 15.1 40.0 3.1 40.0 3.1 22.2 4.25 20.2 3.1 17.55 3.1 0.0 15.1 0.0" fill="#000000" fill-opacity="0.2" fill-rule="evenodd" stroke="none"/>
    <path d="M10.0 0.0 L11.0 0.0 11.0 17.55 10.95 17.7 10.0 20.2 11.0 22.2 11.0 40.0 10.0 40.0 10.0 22.2 8.35 20.2 9.9 17.7 10.0 17.55 10.0 0.0 M0.0 40.0 L-1.0 40.0 -1.0 22.2 0.15 20.2 -0.95 17.7 -1.0 17.55 -1.0 0.0 0.0 0.0 0.0 17.55 0.05 17.7 1.4 20.2 0.0 22.2 0.0 40.0 M10.95 17.7 L9.9 17.7 10.95 17.7 M-0.95 17.7 L0.05 17.7 -0.95 17.7" fill="#653d01" fill-rule="evenodd" stroke="none"/>
    <path d="M9.55 40.0 L0.45 40.0 0.45 26.0 Q0.45 23.75 1.8 22.2 L1.9 22.1 Q3.0 20.9 4.4 20.6 L4.45 20.55 4.7 20.5 6.15 20.75 6.2 20.75 Q7.2 21.15 8.05 22.1 L8.15 22.2 Q9.5 23.75 9.55 26.0 L9.55 40.0 M0.45 0.0 L3.2 0.0 Q2.65 1.1 2.65 3.85 2.65 9.85 3.5 13.45 3.5 14.45 2.7 17.7 L2.65 17.85 2.9 18.75 1.9 17.85 1.8 17.7 1.65 17.55 Q0.45 16.05 0.45 14.0 L0.45 0.0 M3.45 0.0 L9.55 0.0 9.55 14.0 Q9.5 16.05 8.3 17.55 L8.2 17.7 7.05 17.7 8.2 17.7 8.05 17.85 Q7.2 18.8 6.2 19.2 L6.15 19.2 4.7 19.5 4.45 19.4 4.4 19.35 3.25 18.95 3.15 18.3 3.35 17.7 Q4.2 14.95 4.2 13.55 3.2 8.6 3.2 3.4 L3.4 0.8 3.45 0.0 M6.35 17.7 L3.35 17.7 6.35 17.7 6.3 18.0 6.3 18.45 6.7 18.6 7.05 17.7 7.55 12.75 Q7.55 6.55 6.75 4.4 L6.55 4.5 Q6.5 6.3 6.9 9.1 L6.35 17.7 M2.7 17.7 L1.8 17.7 2.7 17.7 M3.0 26.85 L3.1 26.2 Q2.55 26.3 2.55 27.3 2.55 35.4 3.45 39.6 L3.75 37.5 3.0 26.85 M7.15 29.8 Q7.15 27.55 6.4 26.05 L6.25 26.05 6.2 26.2 6.7 30.05 6.1 34.85 6.5 35.15 Q7.15 31.8 7.15 29.8" fill="#a36932" fill-rule="evenodd" stroke="none"/>
    <path d="M9.55 0.0 L10.0 0.0 10.0 17.55 9.9 17.7 8.2 17.7 9.9 17.7 8.35 20.2 10.0 22.2 10.0 40.0 9.55 40.0 9.55 26.0 Q9.5 23.75 8.15 22.2 L8.05 22.1 Q7.2 21.15 6.2 20.75 L6.15 20.75 4.7 20.5 4.45 20.55 4.4 20.6 Q3.0 20.9 1.9 22.1 L1.8 22.2 Q0.45 23.75 0.45 26.0 L0.45 40.0 0.0 40.0 0.0 22.2 1.4 20.2 0.05 17.7 1.8 17.7 0.05 17.7 0.0 17.55 0.0 0.0 0.45 0.0 0.45 14.0 Q0.45 16.05 1.65 17.55 L1.8 17.7 1.9 17.85 2.9 18.75 2.65 17.85 2.7 17.7 Q3.5 14.45 3.5 13.45 2.65 9.85 2.65 3.85 2.65 1.1 3.2 0.0 L3.5 -0.45 3.45 0.0 3.4 0.8 3.2 3.4 Q3.2 8.6 4.2 13.55 4.2 14.95 3.35 17.7 L3.15 18.3 3.25 18.95 4.4 19.35 4.45 19.4 4.7 19.5 6.15 19.2 6.2 19.2 Q7.2 18.8 8.05 17.85 L8.2 17.7 8.3 17.55 Q9.5 16.05 9.55 14.0 L9.55 0.0 M6.35 17.7 L6.9 9.1 Q6.5 6.3 6.55 4.5 L6.75 4.4 Q7.55 6.55 7.55 12.75 L7.05 17.7 6.35 17.7 7.05 17.7 6.7 18.6 6.3 18.45 6.3 18.0 6.35 17.7 M2.7 17.7 L3.35 17.7 2.7 17.7 M7.15 29.8 Q7.15 31.8 6.5 35.15 L6.1 34.85 6.7 30.05 6.2 26.2 6.25 26.05 6.4 26.05 Q7.15 27.55 7.15 29.8 M3.0 26.85 L3.75 37.5 3.45 39.6 Q2.55 35.4 2.55 27.3 2.55 26.3 3.1 26.2 L3.0 26.85" fill="#815529" fill-rule="evenodd" stroke="none"/>
  </g>
</svg>
